svgs/sharp-solid/child-reaching.svg

<svg xmlns="http://www.w3.org/2000/svg" viewBox="0 0 384 512"><!--! Font Awesome Pro 6.6.0 by @fontawesome - https://fontawesome.com License - https://fontawesome.com/license (Commercial License) Copyright 2024 Fonticons, Inc. --><path d="M192 0a64 64 0 1 1 0 128A64 64 0 1 1 192 0zM176 384l0 96 0 32-64 0 0-32 0-241.2-8.6-10.3-80-96L2.9 107.9l49.2-41L72.6 91.5 143 176l1 0 96 0 2.3 0 68.9-84.3L331.5 67 381 107.5l-20.3 24.8-78.5 96L272.7 240l-.7 0 0 240 0 32-64 0 0-32 0-96-32 0z"/></svg>

<svg xmlns="http://www.w3.org/2000/svg" viewBox="0 0 384 512"><!--! Font Awesome Pro 6.5.2 by @fontawesome - https://fontawesome.com License - https://fontawesome.com/license (Commercial License) Copyright 2024 Fonticons, Inc. --><path d="M192 0a64 64 0 1 1 0 128A64 64 0 1 1 192 0zM176 384v96 32H112V480 238.8l-8.6-10.3-80-96L2.9 107.9l49.2-41L72.6 91.5 143 176h1 96 2.3l68.9-84.3L331.5 67 381 107.5l-20.3 24.8-78.5 96L272.7 240H272V480v32H208V480 384H176z"/></svg>
